X:1
T:9 Lieder and Songs, Op.32
T:Der Strom, der neben mir verrauschte
T:4. Der Strom, der neben mir verrauschte
T:Johannes Brahms
T:August von Platen
T:9 Lieder and Songs, Op.32
T:Creative Commons copyright waiver (CC0 1.0 Universal) 
T:Creative Commons copyright waiver (CC0 1.0 Universal) 
T:Creative Commons copyright waiver (CC0 1.0 Universal) 
C:Johannes Brahms
Z:August von Platen
Z:Creative Commons copyright waiver (CC0 1.0 Universal)
Z:
%%score 1 { ( 2 4 ) | ( 3 5 6 ) }
L:1/8
Q:1/4=100
M:4/4
K:E
V:1 treble nm="Singstimme\nVoice"
V:2 treble nm="Pianoforte"
V:4 treble 
V:3 bass 
V:5 bass 
V:6 bass 
V:1
"^Moderato, ma agitato" z4 z2!mf! G2 | C3 D E3 C | F3 G A2 F D | (CE) (GA) B4- | %4
w: Der|Strom, der ne- ben|mir ver rausch- te, wo|ist * er * nun?|
[M:3/2] B2 z2 z4 z2!mp! d2 |[M:4/4] G3 ^A B3 G | c3!<(! G F2 E E | (DF)!<)!!f! (^AB) c4- | %8
w: _ Der|Vo- gel, des- sen|Lied ich lausch- te, wo|ist _ er _ nun?|
[M:3/2] c2 z2 z4 z2!mp! c2 |[M:4/4] F3 G A2 F2 | A3 B c2 B A | G2 A2 B3 ^B | c3 c c =G F E | %13
w: _ Wo|ist die Ro- se,|die die Freun- din am|Her- zen trug, und|je- ner Kuss, der mich be-|
 D2 F2 z2 z!<(! B | A2 z =c B2!<)! z!f! F | (EG) (A^c) d4- | d2 z2 z4 |[M:3/2] z4 z4 z2!mf! G2 | %18
w: rausch- te, wo|ist, wo ist, wo|ist _ er _ nun?|_|Und|
[M:4/4][Q:1/4=115]"^Più agitato" C3 D E3 C | F3 G A2 F c | ^B2 c2 d3 A | G3 A =B =F E =D | %22
w: je- ner Mensch, der|ich ge- we- sen, und|den ich längst mit|ei- nem an- dern Ich ver-|
 C2 E2 z2 z!f! =d | A2 z =d A2 z A | (=FA) (c=d) e4- | e2 z2 z4 |[M:3/2] z2!mf! A2 G4 c4 | %27
w: tausch- te, wo|ist, wo ist wo|ist _ er _ nun?|_|wo ist er|
[M:4/4] e8- | e2 z2 z4 | z8[Q:1/4=70] | !fermata!z8 |] %31
w: nun?|_|||
V:2
 [G,G]8 | (3z (G,C E2) (3z (G,C E2) | (3z (A,C F2) (3z (CF A2) | (3z (CE (3[G,G]CE) [B,B-]4 | %4
[M:3/2] B4 x4 x4 |[M:4/4] (3z (DG B2) (3z (DG B2) | (3z (EG c2) (3z (Gc e2) | %7
 (3z (Fd(3fFd) [Aa-]4 |[M:3/2] a4 x4 x4 |[M:4/4] (3z ([df]B [df]2) (3z ([da]B [da]2) | %10
 (3z ([fc']d [fc']2) (3z ([fb]d [fa]2) | (3z ([eg]=d) (3z ([ea]d) (3z ([eb]d) (3z ([e^b]d) | %12
 (3z (ec(3ece) (3z (ec(3ece) | (3z (^dB(3dBd) (3z (dB(3dBd) | (3z (e=c) (3z (ec) (3z (dB d2) | %15
 (3z ([^CE]E, [CE]2) D4- | ([D,D][^^F,^^F][G,G][^B,^B]) d4- | %17
[M:3/2] ([Dd][^^F^^f][Gg][^B^b]) [dgd']4- [dgd']4 |[M:4/4] (3z ([CE]G, [CE]2) (3z ([CE]G, [CE]2) | %19
 (3z ([CF]A, [CF]2) (3z ([FA]A, [FA]2) | (3z ([^B,A^B]F) (3z ([CAc]F) [Dd]3 x | %21
 (3z ([G,=FG]=D) (3z ([A,FA]D) [B,B]3 x | %22
 (3z ([A,C]E,) (3([^B,E]A,) ([EA](3C) ([Ac]E) (3([ce]A) [=da=d'] | %23
 (6:4:4[Aa]3 x x =d' (6:4:4[Aa]3 x x a | (6:4:4[A,A]3 x x A E4- | ([E,E][G,G][A,A][Cc]) e4- | %26
[M:3/2] ([Ee][Gg][Aa][cc']) [ee']4 E4 |[M:4/4]!f!!<(! [EG]4 [Gc]4!<)! |!f!"_dim." [ce]8- | [ce]8- | %30
!p! [ce]8 |] %31
V:3
!>(! z4 G,,4!>)! |!p! (3C,,(G,,C, E,2) (3C,,(G,,C, E,2) | (3A,,,(A,,C, F,2) (3F,,,(C,F, A,2) | %3
!<(! (3E,,(C,E,) (3C,,(C,E,)!<)!!f! (B,,,D,,F,,^A,,) | %4
[M:3/2]!>(! (B,,D,F,^A,) [B,,B,]4-!>)!!p! [B,,B,]4 |[M:4/4]!p! (3B,,(D,G, B,2) (3G,,(D,G, B,2) | %6
 (3E,,(E,G, C2)!<(! (3C,,(G,C E2) | %7
 (3([B,,,B,,]F,!<)!!f!D(3FF,D)!f! [A,,,A,,][C,,C,][E,,E,][G,,G,] | %8
[M:3/2]!>(! A,CEF [A,A]4-!>)!!p! [A,A]4 |[M:4/4]!p! (3z ([DF]B, [DF]2) (3z ([DA]B, [DA]2) | %10
 D,2 z2 B,,2 z2 |[K:treble]!<(! (3z ([EG]=D) (3z ([EA]D) (3z ([EB]D) (3z ([EG]D)!<)! | %12
!p! (3z ([EA]C(3[EA]C[EA]) (3z ([E=G]C(3[EG]C[EG]) | (3z (F^D(3FDF) (3z (FD(3FDF) | %14
!<(! (3z (AE) (3z (AE) (3z (FD!<)!!f! F2) | %15
[K:bass]!f! (3[^C,,,^C,,] (^C,E,, C,2)!f! [^B,,,,^B,,,][D,,,D,,][^^F,,,^^F,,][G,,,G,,] | %16
 (6:4:6(^B,,G,,B,,G,,B,,G,,)!<(! ([^B,,,B,,][D,,D,][^^F,,^^F,][G,,G,]) | %17
[M:3/2] (6:4:6(^B,G,B,G,B,G,)!<)!!>(! (6:4:6(B,G,B,G,B,G,- [G,B,]4)!>)! | %18
[M:4/4] (3C,,([C,E,]G,, [C,E,]2) (3D,,([C,E,]G,, [C,E,]2) | %19
 (3A,,,([C,F,]A,, [C,F,]2) (3[F,,,F,,]([F,A,]C, [F,A,]2) | %20
!<(! (3D,A,D, (3C,A,F,!<)! (3^B,,A,F, (3A,F,A, | (3=B,,=F,=D, (3A,,F,D, (3G,,F,D, (3F,D,F, | %22
"^cresc." (3A,,,!<(! (C,A,,) (3(E,C,) (A,(3E,) (CA,) (3(EC)!<)! [=F,,=F,] | %23
 (6:4:6[A,,A,] ([CE]A,[CE]A,) [=F,,=F,] (6:4:6[A,,A,] ([CE]A,[CE]A,) [A,,,A,,] | %24
 (6:4:6[=D,,=D,] ^E,D,E,D, [=D,,,D,,]!f! ([C,,,C,,][E,,,E,,][G,,,G,,][A,,,A,,]) | %25
!<(! (6:4:6C,E,,C,E,,C,E,, ([C,,C,][E,,E,][G,,G,]!<)![A,,A,]) | %26
[M:3/2]!>(! (6:4:6CE,CE,CE, (6:4:6CE,CE,CE,!>)!!<(! z2 ([A,,,A,,]2!<)! | %27
[M:4/4] [G,,,G,,]4) [E,,,E,,]4 | [C,,,C,,]8 | [C,E,G,C]8 | [C,E,G,C]8 |] %31
V:4
 x8 | x8 | x8 | x4 (3(B,DF(3DFD) |[M:3/2] (3(FDF(3DFD (3FDF(3DFD (3FDF(3D^^FD) |[M:4/4] x8 | x8 | %7
 x4 (3Ace(3cec |[M:3/2] (3(ece(3cec (3ece(3cec (3ece(3c^ec) |[M:4/4] x8 | %10
 (3z ([Fc]D [Fc]2) (3z (([FB][I:staff +1]B,)[I:staff -1] [DA]2) | x8 | %12
 (6:4:2z c'3 x4/3 (6:4:2z c'3 x4/3 | (6:4:2z b3 x4/3 (6:4:2z b3 x4/3 | %14
 (6:4:4z a2 z =c'2 (6:4:2z b3 x4/3 | x4 (6:4:6D,^B,D,B,D,B, | x4 (6:4:6D^BDBDB |[M:3/2] x12 | %18
[M:4/4] x8 | x8 | x4 (3z (AF (3AFA) | x4 (3z (=F=D (3FDF) | x8 | %23
 (6:4:6z (ecec) [=da] (6:4:6z (eAeA) [Ae] | (6:4:6z (=F=DFD) [A,F] (6:4:6E,CE,CE,C | %25
 x4 (6:4:6EcEcEc |[M:3/2] x8 (6:4:6CE,CE,CE, |[M:4/4] (6:4:6CG,CG,CG, (6:4:6ECECEC | %28
 (6:4:6GEGE!>(!GE (6:4:6GEGEGE | (6:4:6GEGEG!>)!E"_rit." (6:4:6GEGEGE- | [EG]8 |] %31
V:5
 x8 | x8 | x8 | x8 |[M:3/2] B,,4 x8 |[M:4/4] x8 | x8 | x8 |[M:3/2] A,4- x8 |[M:4/4] A,2 z2 F,2 z2 | %10
 x8 |[K:treble] B,2 A,2 G,2 E,2 | A,2 z2 ^A,2 z2 | B,2 z2 B,4 | =C2 A,2 B,4 |[K:bass] x8 | %16
 ^B,,,4 x4 |[M:3/2] ^B,,4- B,,4- B,,4 |[M:4/4] x8 | x8 | D,2 C,2 ^B,,4 | B,,2 A,,2 G,,4 | x8 | x8 | %24
 x8 | C,,4- x4 |[M:3/2] C,4- C,4 x4 |[M:4/4] x8 | x8 | x8 | x8 |] %31
V:6
 x8 | x8 | x8 | x8 |[M:3/2] x12 |[M:4/4] x8 | x8 | x8 |[M:3/2] A,,2 x10 |[M:4/4] x8 | x8 | %11
[K:treble] x8 | x8 | x8 | x8 |[K:bass] x8 | x8 |[M:3/2] x12 |[M:4/4] x8 | x8 | x8 | x8 | x8 | x8 | %24
 x8 | x8 |[M:3/2] x12 |[M:4/4] x8 | x8 | x8 | x8 |] %31

